X:1
T:Wir Sagen Euch An
T:Wir sagen euch an den lieben Advent
T:H. Rohr Satz: N. Winkel 
C:H. Rohr Satz: N. Winkel
%%score [ 1 2 3 4 ]
L:1/8
M:3/4
K:F
V:1 treble nm="S" snm="S\n"
V:2 treble nm="A" snm="A"
V:3 treble-8 nm="T" snm="T"
V:4 bass nm="B" snm="B"
V:1
 A2 | A2 F2 G2 | A4 F2 | G3 F E2 | F4 z2 | A2 A2 B2 | c4 A2 | G4 G2 | A4 :| z2 | c2 c2 G2 | %11
w: Wir|sa- gen euch|an den|lie- ben Ad-|vent.|Se- het, die|er- ste|Ker- ze|brennt!||Freut euch, ihr|
w: Wir|sa- gen euch|an eine|hei- li- ge|Zeit.|Ma- chet dem|Herrn den|Weg be-|reit.|||
 A2 F2 z2 | c2 c2 G2 | A4 z2 | F4 A2 | G3 F E2 | F4 |] %17
w: Chris- ten,|freu- et euch|sehr!|Schon ist|na- he der|Herr.|
w: ||||||
V:2
 C2 | C2 D2 D2 | D4 C2 | C3 A, C2 | C4 z2 | C2 C2 D2 | G4 A2 | B2 G4 | A4 :| z2 | c2 c2 G2 | %11
w: Wir|sa- gen euch|an den|lie- ben Ad-|vent.|Se- het, die|er- ste|Ker- ze|brennt!||Freut euch, ihr|
w: Wir|sa- gen euch|an eine|hei- li- ge|Zeit.|Ma- chet dem|Herrn den|Weg be-|reit.|||
 A2 F2 z2 | G2 F2 D2 | E4 z2 | C4 C2 | D3 B, C2 | C4 |] %17
w: Chris- ten,|freu- et euch|sehr!|Schon ist|na- he der|Herr.|
w: ||||||
V:3
 c2 | A2 A2 G2 | F4 F2 | E3 F G2 | A4 z2 | F2 F2 F2 | G4 c2 | d2 e4 | f4 :| z2 | z6 | z6 | %12
w: Wir|sa- gen euch|an den|lie- ben Ad-|vent.|Se- het, die|er- ste|Ker- ze|brennt!||||
w: Wir|sa- gen euch|an eine|hei- li- ge|Zeit.|Ma- chet dem|Herrn den|Weg be-|reit.||||
 E2 A2 B2 | c4 z2 | A4 c2 | G3 F G2 | A4 |] %17
w: freu- et euch|sehr!|Schon ist|na- he der|Herr.|
w: |||||
V:4
 A,2 | F,2 D,2 D,2 | D,4 A,2 | E,3 C, G,2 | F,4 z2 | F,2 F,2 D,2 | E,4 F,2 | B,4 C2 | C4 :| z2 | %10
w: Wir|sa- gen euch|an den|lie- ben Ad-|vent.|Se- het, die|er- ste|Ker- ze|brennt!||
w: Wir|sa- gen euch|an eine|hei- li- ge|Zeit.|Ma- chet dem|Herrn den|Weg be-|reit.||
 z6 | z6 | (CB,) F,2 G,2 | E,4 z2 | (F,2 E,2) F,2 | B,,3 G,, C,2 | [F,,F,]4 |] %17
w: ||freu- * et euch|sehr!|Schon * ist|na- he der|Herr.|
w: |||||||

